contributed-vectors/selfprivacy.svg

<?xml version="1.0" encoding="UTF-8" standalone="no"?>
<svg
   xmlns:dc="http://purl.org/dc/elements/1.1/"
   xmlns:cc="http://creativecommons.org/ns#"
   xmlns:rdf="http://www.w3.org/1999/02/22-rdf-syntax-ns#"
   xmlns:svg="http://www.w3.org/2000/svg"
   xmlns="http://www.w3.org/2000/svg"
   xmlns:sodipodi="http://sodipodi.sourceforge.net/DTD/sodipodi-0.dtd"
   xmlns:inkscape="http://www.inkscape.org/namespaces/inkscape"
   viewBox="0 0 192 192"
   version="1.1"
   id="svg1863"
   inkscape:version="1.0.1 (3bc2e813f5, 2020-09-07)"
   sodipodi:docname="selfprivacy.svg"
   inkscape:export-filename="/home/jphilippe/github/delta/android/contributed-vectors/joelchrono12/selfprivacy.png"
   inkscape:export-xdpi="96"
   inkscape:export-ydpi="96">
  <metadata
     id="metadata10">
    <rdf:RDF>
      <cc:Work
         rdf:about="">
        <dc:format>image/svg+xml</dc:format>
        <dc:type
           rdf:resource="http://purl.org/dc/dcmitype/StillImage" />
      </cc:Work>
    </rdf:RDF>
  </metadata>
  <sodipodi:namedview
     id="namedview1865"
     pagecolor="#505050"
     bordercolor="#eeeeee"
     borderopacity="1"
     inkscape:pageshadow="0"
     inkscape:pageopacity="0"
     inkscape:pagecheckerboard="0"
     showgrid="false"
     inkscape:object-paths="true"
     inkscape:zoom="1.8333333"
     inkscape:cx="50.727273"
     inkscape:cy="37.636364"
     inkscape:window-width="1884"
     inkscape:window-height="1052"
     inkscape:window-x="36"
     inkscape:window-y="0"
     inkscape:window-maximized="1"
     inkscape:current-layer="svg1863"
     inkscape:document-rotation="0" />
  <defs
     id="defs1851">
    <style
       id="style1849">.a{fill:none;stroke:#b1b5bd;stroke-linecap:round;stroke-linejoin:round;isolation:isolate;opacity:0.63;}</style>
    <style
       id="style2025">.cls-1{fill:none;stroke:#fff;stroke-linecap:round;stroke-linejoin:round;}</style>
    <style
       id="style2221">.a{fill:none;stroke:#fff;stroke-linecap:round;stroke-linejoin:round;}</style>
    <style
       id="style1040">.a{fill:none;stroke:#b1b5bd;stroke-linecap:round;stroke-linejoin:round;isolation:isolate;opacity:0.63;}</style>
    <style
       id="style2571">.a{fill:none;stroke:#b1b5bd;stroke-linecap:round;stroke-linejoin:round;isolation:isolate;opacity:0.63;}</style>
  </defs>
  <rect
     class="a"
     x="20"
     y="20"
     width="152"
     height="152"
     rx="10"
     id="rect1853"
     style="fill:#f9de81;stroke:none;opacity:1" />
  <path
     id="rect1861"
     style="opacity:1;fill:#56595b;stroke:none;stroke-width:0.70396;fill-opacity:1"
     class="a"
     d="M 14.792969 66.626953 C 11.029466 66.626953 8 69.656419 8 73.419922 L 8 153.20703 C 8 156.97053 11.029466 160 14.792969 160 L 120.76953 160 C 124.53303 160 127.5625 156.97053 127.5625 153.20703 L 127.5625 100.01758 L 94.173828 66.626953 L 14.792969 66.626953 z M 95.785156 89.439453 A 12.293199 12.293199 0 0 1 101.25 112.8457 L 107.1875 135.24023 L 85.263672 135.24023 L 90.947266 112.93555 A 12.295999 12.295999 0 0 1 83.707031 101.72656 A 12.293199 12.293199 0 0 1 95.785156 89.439453 z " />
</svg>

<svg xmlns="http://www.w3.org/2000/svg" id="svg1863" version="1.1" viewBox="0 0 192 192"><defs id="defs1851"><style id="style1849">.a{fill:none;stroke:#b1b5bd;stroke-linecap:round;stroke-linejoin:round;isolation:isolate;opacity:.63}</style></defs><rect id="rect1853" width="152" height="152" x="20" y="20" class="a" rx="10" style="fill:#f9de81;stroke:none;opacity:1"/><path id="rect1861" d="M14.793 66.627A6.778 6.778 0 0 0 8 73.42v79.787A6.778 6.778 0 0 0 14.793 160H120.77a6.778 6.778 0 0 0 6.793-6.793v-53.19l-33.39-33.39h-79.38zm80.992 22.812a12.293 12.293 0 0 1 5.465 23.407l5.938 22.394H85.263l5.683-22.304a12.296 12.296 0 0 1-7.24-11.21A12.293 12.293 0 0 1 95.785 89.44z" class="a" style="opacity:1;fill:#56595b;stroke:none;stroke-width:.70396;fill-opacity:1"/></svg>
